X:1
T:The Lady Oriana - Wilbye
T:James Gibb editions
T:#
%%score 1 2 3 { 4 | 5 }
L:1/8
Q:1/4=120
M:4/4
K:C
V:1 treble nm="Soprano I"
V:2 treble nm="Soprano II"
V:3 treble nm="Alto" snm="A"
V:4 treble-8 nm="Tenor I" snm="T"
V:5 treble-8 
V:1
"^The Lady Oriana""^John Wilbye\n (1574-1638)" z4!mf! c4 | c4 c4 | c2 c2 d4 | e4 z2 G2- | %4
w: The|La- dy|O- ri- a-|na, the|
 G2 c4 B2 | (cd) (ef) g4 | c4 z4 |[M:4/4] z8 | z2 e2 e2 d2 | c6 (de) | f4 d4 | z4 z2 a2- | %12
w: * La- dy|O\- * ri\- * a-|na||Was dight all|in the *|trea- sures,|all|
 ag f2 e2 e2 | ^f2 g2 (g2 f2) | g4 z2 d2 | e4 z2 g2 | g4 z2 g2- | gf e2 d2 d2 | e2 c2 d4 | c4 z4 | %20
w: * in the trea- sures|of Gui- a\- *|na, was|dight, was|dight all|* in the trea- sures|of Gui- a-|na;|
 z8 | z2 G2 d2 d2 | d2 g2 g3 f | e3 d c2 c2 | B2 G2 z4 |!f! c4 c2 c2 | c4 f4 | e4 a4 | g2 f2 e4 | %29
w: |And on her|Grace a thou- sand,|thou- sand Gra- ces|tend- ed:|And thus sang|they, fair|Queen of|peace and plen-|
 d4 d4 | d2 d2 e2 e2 | d8 | d4 z4 |!p! B2 AB c2 G2 | A4 G2 E2- | E2 G2 (G2 ^F2) | G8 | z8 | %38
w: ty; The|fair- est queen of|twen-|ty:|Then with an o- live|wreath, for peace|* re- nown\- *|ed,||
 z4 d2 G2- | G2 B2 A2 A2 | G2 B3 A A2- | AG (G4 ^F2) | G4 z4 | z8 | z2!mf! g2 gfed | e2 c2 z4 | %46
w: for peace|* re- nown- ed,|Her vir- gin head|* they crown\- *|ed:||Which ce- re- mo- ny|end- ed,|
 z2 a2 agfe | f2 d2 z4 | d4 d2 d2 | ^c2 d2 e4 | d4 z4 | z2 g2 gfed | e2 c2 z2!p! G2 | G2 G2 G4- | %54
w: which ce- re- mo- ny|end- ed,|which ce- re-|mo- ny end-|ed,|which ce- re- mo- ny|end- ed, Un-|to her Grace|
 G2 G2 c3 c | B2 c2 (c2 B2) | c8 |!f! c4 c2 c2 | c4 f4 | e6 a2 | g2 f2 e4 | d4!p! A4 | B4 G2 c2- | %63
w: * the thou- sand|Gra- ces bend\- *|ed.|Then sang the|shep- herds|and nymphs|of Di- a-|na, Long|live fair O\-|
 c2 B2 A4 | B4 d4 | G2 c2 c2 B2 | c4 G4 | z2 g2 g2 f2 | e2 e2 d4 | c4 z2!f! G2 | G2 ^F2 (GA) (Bc) | %71
w: * ri- a-|na, long|live fair O- ri-|a- na,|long live fair|O- ri- a-|na, long|live fair O\- * ri\- *|
 d8 | d4 z4 | z4 d4 | G2 c2 c2 B2 | c2 c2 z4 | z2 g2 g2 f2 | %77
w: a-|na,|long|live fair O- ri-|a- na,|long live fair|
[Q:1/4=118] e2[Q:1/4=116] e2[Q:1/4=112] (d4- | %78
w: O- ri- a\-|
[Q:1/4=110] d[Q:1/4=108]c[Q:1/4=106] c4[Q:1/4=103] B2) |[Q:1/4=102] c16 |] %80
w: |na.|
V:2
!mf! G8 | A6 G2 | A2 c2 (c2 B2) | c4 z4 | z2 g2 g3 f | e2 c2 c4 | A2 f2 f2 g2 |[M:4/4] f2 (ef) g4 | %8
w: The|La- dy|O- ri- a\- *|na,|the La- dy|O- ri- a-|na, the La- dy|O- ri\- * a-|
 g2 G2 G4 | z2 F2 A4 | z8 | z2 a3 g f2 | e2 d2 d2 ^c2 | d4 d4 | z8 | z2 g2 g4 | z2 g3 f e2 | %17
w: na Was dight,|was dight||all in the|trea- sures of Gui-|a- na,||was dight|all in the|
 d2 c2 c2 B2 | c4 G4 | z2 e2 e2 e2 | d2 B2 d3 c | B3 A G2 A2 | B2 G2 z2 g2 | g3 f e2 e2 | %24
w: trea- sures of Gui-|a- na;|And on her|Grace a thou- sand,|thou- sand Gra- ces|tend- ed, a|thou- sand, thou- sand|
 d3 c B2 G2 |!f! A4 A2 G2 | A4 d4 | ^c6 f2 | e2 d2 (d2 ^c2) | d4 A4 | B4 G2 c2- | c2 B2 A4 | B8 | %33
w: Gra- ces tend- ed:|And thus sang|they, fair|Queen of|peace and plen\- *|ty; The|fair- est queen|* of twen-|ty:|
!p! d2 dd e2 c2 | d4 d2 G2- | G2 B2 A4 | B8 | z8 | z4 g2 e2- | e2 d2 d4 | d4 z4 | z8 | %42
w: Then with an o- live|wreath, for peace|* re- nown-|ed,||for peace|* re- nown-|ed,||
 d2 e3 d d2- | dc (c4 B2) | c4 z2!mf! g2 | gfed e2 c2 | z4 z2 a2 | agfe f2 d2 | z2 A2 AGA_B | A8 | %50
w: Her vir- gin head|* they crown\- *|ed: Which|ce- re- mo- ny end- ed,|which|ce- re- mo- ny end- ed,|which ce- re- mo- ny|end-|
 A4 z2 d2 | dc=BA B2 G2 | z4!p! c4 | d4 d4 | e3 f g2 e2 | d2 c2 d4 | e8 | z2!f! a2 a2 g2 | %58
w: ed, which|ce- re- mo- ny end- ed,|Un-|to her|Grace the thou- sand|Gra- ces bend-|ed.|Then sang the|
 f3 g a2 d2 | ^c4 z2 f2 | (ed- d4 ^c2) | d4!p! d4 | d2 d2 e2 e2 | d8 | d4 z4 | z4 d4 | %66
w: shep- herds and nymphs|of Di-|a * * *|na, Long|live fair O- ri-|a-|na,|long|
 G2 c2 c2 B2 | c4 G4 | z2 g2 g2 f2 | e2 e2 d4 | c4 z2!f! d2 | d2 B2 A2 A2 | B2 G2 d4 | %73
w: live fair O- ri-|a- na,|long live fair|O- ri- a-|na, long|live fair O- ri-|a- na, long|
 G2 c2 c2 B2 | c4 G4 | z2 g2 g2 f2 | e2 e2 d4 | B6 g2 | g2 (fe) d4 | e16 |] %80
w: live fair O- ri-|a- na,|long live fair|O- ri- a-|na, fair|O- ri\- * a-|na.|
V:3
!mf! C8 | F6 E2 | F2 A2 G4 | G8 | z4 z2 G2 | G3 F E2 G2 | (FGAB c4) |[M:4/4] A4 z4 | z2 c2 c2 _B2 | %9
w: The|La- dy|O- ri- a-|na,|the|La- dy O- ri-|a\- * * * *|na|Was dight all|
 A6 (=Bc) | d4 A4 | A2 A2 A4 | A6 A2 | A2 B2 A2 A2 | B2 c4 B2 | c8 | B4 G4- | G4 z2 G2 | G6 G2 | %19
w: in the *|trea- sures|of Gui- a-|na, was|dight all in the|trea- sures of|Gui-|a- na;|* And|on her|
 G2 c2 B2 c2 | A2 G2 A4 | G2 d2 B3 A | G4 G4 | G8 | G4 z4 |!f! F4 F2 G2 | F6 A2 | A6 A2 | %28
w: Grace a thou- sand,|Gra- ces tend-|ed, a thou- sand|Gra- ces|tend-|ed:|And thus sang|they, fair|Queen of|
 D2 A2 A4 | A4 z2 D2- | D2 G4 A2 | ^F2 G2 (G2 F2) | G8 | z8 | z8 | z8 | z8 |!p! D2 DD E2 C2 | %38
w: peace and plen-|ty; The|* fair- est|queen of twen\- *|ty:|||||Then with an o- live|
 D4 D2 E2- | E2 G2 (G2 ^F2) | G4 z4 | z2 G2 c3 c | B2 B2 A4 | G2 G2 F4 | E8 | z4!mf! c4 | %46
w: wreath, for peace|* re- nown\- *|ed,|Her vir- gin|head they crown-|ed, they crown-|ed:|Which|
 cBAG A2 A2 | z2 A2 AGFE | F2 D2 z2 F2 | E2 D2 D2 ^C2 | D2 D2 z4 | z4 z2!p! B,2 | (CD) (EF) G2 E2 | %53
w: ce- re- mo- ny end- ed,|which ce- re- mo- ny|end- ed, which|ce- re- mo- ny|end- ed,|Un-|to * her * Grace the|
 D4 D4 | C4 C4 | G8 | G8 |!f! F4 F2 G2 | A6 A2 | A2 A,2 ^C2 D2 | (E2 FG A4) | A4 z4 | z4 z2!p! A2 | %63
w: thou- sand|Gra- ces|bend-|ed.|Then sang the|shep- herds|and nymphs of Di-|a\- * * *|na,|Long|
 ^F2 G2 G2 F2 | G4 D2 D2 | E2 C2 D2 D2 | E2 C2 z4 | z8 | z8 | z8 | z2!f! A2 D3 E | ^F2 G2 (G2 F2) | %72
w: live fair O- ri-|a- na, long|live fair O- ri-|a- na,||||long live fair|O- ri- a\- *|
 G4 D4 | E2 C2 D4 | E2 C2 D2 (EF) | G2 G2 z2 D2 | G2 E2 A2 A2 | G8- | G8 | G16 |] %80
w: na, fair|O- ri- a-|na, fair O- ri\- *|a- na, long|live fair O- ri-|a\-||na.|
V:4
 z8 | z8 | z8 | z2!mf! e2 e2 d2 | e2 c2 G4 | G4 c4 | c4 c4 |[M:4/4][K:treble-8] c2 c2 d4 | e4 e4 | %9
w: |||The La- dy|O- ri- a-|na, the|La- dy|O- ri- a-|na Was|
 f4 z4 | z2 a3 g f2 | e2 d2 ^c2 d2 | (e2 fg a2) A2 | z4 d4 | d2 e2 d4 | c4 z2 g2- | gf e2 d2 c2 | %17
w: dight|all in the|trea- sures of Gui-|a\- * * * na,|all|in the treas-|sures, all|* in the trea- sures|
 B2 c2 d4 | c2 e2 d2 d2 | e3 f g2 e2 | ^f2 g2 (g2 f2) | g4 z4 | z2 d2 e3 f | g2 d2 e2 c2 | d4 d4 | %25
w: of Gui- a-|na; And on her|Grace a thou- sand|Gra- ces tend\- *|ed,|a thou- sand,|thou- sand Gra- ces|tend- ed:|
 z2!f! c2 c3 _B | A4 A4 | A4 z2 d2 | B2 d2 e4 | ^f2 g2 g2 f2 | g4 G4 | d8 | d8 |!p! g2 ^fg c2 e2 | %34
w: And thus sang|they, fair|Queen of|peace and plen-|ty; The fair- est|queen of|twen-|ty:|Then with an o- live|
 d4 B2 c2- | c2 G2 d4 | G8 | z8 | z8 | z8 | z2 d2 e3 e | d2 d2 (c2 A2) | B4 z4 | z8 | %44
w: wreath, for peace|* re- nown-|ed,||||Her vir- gin|head they crown\- *|ed:||
 z2!mf! c2 cdef | g2 g2 z2 e2 | agfe f2 c2 | z4 z2 a2 | agfe f2 d2 | z8 | z2 d2 dcBA | %51
w: Which ce- re- mo- ny|end- ed, which|ce- re- mo- ny end- ed,|which|ce- re- mo- ny end- ed,||which ce- re- mo- ny|
 B2 G2 z2!p! g2 | gfed e2 c2 | z2 G2 G2 G2 | G2 g2 g2 g2 | g2 e2 d4 | c8 |!f! A4 A2 c2 | %58
w: end- ed, which|ce- re- mo- ny end- ed,|Un- to her|Grace the thou- sand|Gra- ces bend-|ed.|Then sang the|
 c2 c2 z2 d2 | e6 (d=c) | B2 d2 e2 e2 | ^f8 | g8 | z2!p! d2 d2 c2 | B2 B2 A4 | G4 z4 | %66
w: shep- herds and|shep- herds *|and nymphs of Di-|a-|na,|Long live fair|O- ri- a-|na,|
 z2 g2 g2 f2 | e2 e2 d4 | c4 B4 | (cd) (ef) g4 | c4 z4 | z2!f! d2 d2 c2 | B2 B2 A4 | G4 z4 | %74
w: long live fair|O- ri- a-|na, fair|O\- * ri\- * a-|na,|long live fair|O- ri- a-|na,|
 z2 g2 g2 f2 | e2 e2 d4 | c2 B2 A2 A2 | B2 G2 d4 | G2 g2 (g3 f) | e16 |] %80
w: long live fair|O- ri- a-|na, fair O- ri-|a- na, fair|O- ri- a\- *|na.|
V:5
 z8 | z8 | z4!mf! G4 | c6 B2 | c2 e2 d4 | c4 G4 | A6 G2 |[M:4/4][K:treble-8] A2 c2 (c2 B2) | %8
w: ||The|La- dy|O- ri- a-|na, the|La- dy|O- ri- a\- *|
 c2 c2 c4- | c2 c2 f3 g | f2 d2 z2 a2- | ag f2 e2 d2 | ^c2 d2 e4 | d4 z4 | z2 g2 g4 | z2 g3 f e2 | %16
w: na Was dight|* all in the|trea- sures, all|* in the trea- sures|of Gui- a-|na,|was dight|all in the|
 d2 c2 B2 c2 | (d2 ef g2) G2 | z2 c2 c2 B2 | c3 d e2 c2 | d2 e2 d4 | d2 d2 d3 c | B3 A G2 G2 | %23
w: trea- sures of Gui-|a\- * * * na;|And on her|Grace a thou- sand|Gra- ces tend-|ed, a thou- sand,|thou- sand Gra- ces|
 (G6 A2) | B8 | z2!f! A2 A2 c2 | c4 d4 | e4 A4 | B2 A2 A4 | A2 d2 d3 c | B2 G2 B2 c2 | A2 G2 A4 | %32
w: tend\- *|ed:|And thus sang|they, fair|Queen of|peace and plen-|ty; The fair- est|queen, the fair- est|queen of twen-|
 G4 z4 | z8 | z8 | z8 | z8 |!p! B2 AB c2 G2 | A4 B2 c2- | c2 d2 d4 | d4 z4 | z8 | z2 g2 c2 d2 | %43
w: ty:|||||Then with an o- live|wreath, for peace|* re- nown-|ed,||Her vir- gin|
 e2 c2 d4 | G4 z2!mf! c2 | cdef g2 a2 | z4 z2 A2 | defg a4 | d4 z4 | z2 a2 agfe | (^f2 g3 a f2) | %51
w: head they crown-|ed: Which|ce- re- mo- ny end- ed,|which|ce- re- mo- ny end-|ed,|which ce- re- mo- ny|end\- * * *|
 g8 | z2!p! G2 G2 G2 | G4 z2 g2 | e3 d c2 (BA) | B2 G2 z4 | z8 |!f! c4 c3 _B | A4 A4 | A4 A4 | %60
w: ed,|Un- to her|Grace the|thou- sand Gra- ces *|bend- ed.||Then sang the|shep- herds|and nymphs|
 B2 A2 A4 | A2!p! d2 d2 c2 | BA B2 c3 B | A2 G2 A4 | G4 z4 | z2 g2 g2 f2 | e2 e2 d4 | c4 B4 | %68
w: of Di- a-|na, Long live fair|O- ri- a- na, fair|O- ri- a-|na,|long live fair|O- ri- a-|na, fair|
 (cd) (ef) g4 | g4 z4 | z2!f! c2 c2 B2 | A2 G2 A4 | G4 z4 | z2 g2 g2 f2 | e2 e2 d4 | c2 c2 B2 A2 | %76
w: O\- * ri\- * a-|na,|long live fair|O- ri- a-|na,|long live fair|O- ri- a-|na, fair O- ri-|
 G2 G2 z4 | z2 g2 g3 f | e2 (dc) d4 | c16 |] %80
w: a- na,|long live fair|O- ri\- * a-|na.|

